images/popup/logo.svg

<svg width="110" height="51" viewBox="0 0 110 51" fill="none" xmlns="http://www.w3.org/2000/svg">
<path d="M0 11.7721C0 5.27053 5.20777 0 11.6319 0H38.7608C45.1849 0 50.3927 5.27053 50.3927 11.7721V39.2279C50.3927 45.7295 45.1849 51 38.7608 51H11.6319C5.20777 51 0 45.7295 0 39.2279V11.7721Z" fill="black"/>
<path d="M40.1231 23.9397C39.5965 20.4756 36.6874 17.9595 33.2084 17.9595C32.8847 17.9595 32.5524 17.9814 32.2286 18.025C31.81 18.0818 31.4042 18.1736 31.0158 18.2959C30.3813 18.4968 29.9454 19.0909 29.9454 19.7636V22.1705C30.7266 21.3231 31.8359 20.7989 33.0919 20.7989C34.2616 20.7989 35.3536 21.2488 36.1608 22.0657C36.9722 22.8869 37.4168 24.0008 37.4168 25.1934C37.4168 27.6527 35.5133 29.5835 33.0919 29.5879C31.9308 29.5879 30.8474 29.1336 30.0446 28.3123C29.2418 27.4911 28.7972 26.3859 28.7972 25.1978V15.0191C28.7972 14.292 28.2078 13.7026 27.4808 13.7026V13.7026C26.6434 13.7026 25.9658 13.7026 25.9658 13.7026V23.9397C25.9658 23.9397 26.0022 25.085 26.1175 25.8076C26.2985 26.9425 26.421 27.6197 26.9289 28.6344C27.4432 29.6618 28.8016 30.894 28.8016 30.894C30.0403 31.89 31.5899 32.4404 33.2214 32.4404C34.6156 32.4404 35.9493 32.0297 37.0801 31.2478C39.549 29.5442 40.6065 27.015 40.136 23.9397H40.1231Z" fill="#FF5100"/>
<path d="M10.3836 23.9177C10.9102 20.4536 13.8194 17.9375 17.2983 17.9375C17.622 17.9375 17.9543 17.9593 18.2781 18.003C18.6967 18.0598 19.1025 18.1515 19.4909 18.2739C20.1254 18.4748 20.5614 19.0689 20.5614 19.7416V22.1485C19.7801 21.3011 18.6708 20.7769 17.4148 20.7769C16.2451 20.7769 15.1531 21.2268 14.3459 22.0437C13.5345 22.8649 13.0899 23.9788 13.0899 25.1714C13.0899 27.6307 14.9934 29.5615 17.4148 29.5659C18.5759 29.5659 19.6593 29.1116 20.4621 28.2903C21.2649 27.4691 21.7095 26.3639 21.7095 25.1757V18.2083H23.026C23.8633 18.2083 24.5409 18.8942 24.5409 19.7416V37.0094H23.2202C22.3828 37.0094 21.7052 36.3236 21.7052 35.4761V30.872C20.4664 31.8679 18.9169 32.4183 17.2853 32.4183C15.8912 32.4183 14.5574 32.0077 13.4266 31.2258C10.9577 29.5222 9.9002 26.9929 10.3707 23.9177H10.3836Z" fill="#FF5100"/>
<path d="M64.9685 30.3726C64.6535 30.6334 64.267 30.829 63.8089 30.9594C63.3651 31.0898 62.8927 31.155 62.3916 31.155C61.1318 31.155 60.1583 30.8218 59.4711 30.1553C58.7839 29.4888 58.4403 28.5181 58.4403 27.2431V21.6577H56.5506V19.4844H58.4403V16.8329H61.1246V19.4844H64.1954V21.6577H61.1246V27.1779C61.1246 27.7429 61.2606 28.1776 61.5326 28.4818C61.8046 28.7716 62.1983 28.9165 62.7137 28.9165C63.315 28.9165 63.816 28.7571 64.2169 28.4384L64.9685 30.3726Z" fill="black"/>
<path d="M71.953 31.155C70.7934 31.155 69.7483 30.9014 68.8178 30.3943C67.8872 29.8872 67.1571 29.1845 66.6274 28.2862C66.112 27.3734 65.8543 26.3448 65.8543 25.2001C65.8543 24.0555 66.112 23.0341 66.6274 22.1358C67.1571 21.2375 67.8872 20.5348 68.8178 20.0277C69.7483 19.5206 70.7934 19.267 71.953 19.267C73.1269 19.267 74.1792 19.5206 75.1097 20.0277C76.0403 20.5348 76.7632 21.2375 77.2786 22.1358C77.8083 23.0341 78.0732 24.0555 78.0732 25.2001C78.0732 26.3448 77.8083 27.3734 77.2786 28.2862C76.7632 29.1845 76.0403 29.8872 75.1097 30.3943C74.1792 30.9014 73.1269 31.155 71.953 31.155ZM71.953 28.8296C72.9408 28.8296 73.7568 28.4963 74.4011 27.8298C75.0453 27.1634 75.3674 26.2868 75.3674 25.2001C75.3674 24.1135 75.0453 23.2369 74.4011 22.5704C73.7568 21.904 72.9408 21.5707 71.953 21.5707C70.9652 21.5707 70.1492 21.904 69.5049 22.5704C68.875 23.2369 68.5601 24.1135 68.5601 25.2001C68.5601 26.2868 68.875 27.1634 69.5049 27.8298C70.1492 28.4963 70.9652 28.8296 71.953 28.8296Z" fill="black"/>
<path d="M85.7938 31.155C84.6342 31.155 83.5891 30.9014 82.6586 30.3943C81.728 29.8872 80.9979 29.1845 80.4682 28.2862C79.9528 27.3734 79.6951 26.3448 79.6951 25.2001C79.6951 24.0555 79.9528 23.0341 80.4682 22.1358C80.9979 21.2375 81.728 20.5348 82.6586 20.0277C83.5891 19.5206 84.6342 19.267 85.7938 19.267C86.9677 19.267 88.02 19.5206 88.9505 20.0277C89.8811 20.5348 90.604 21.2375 91.1194 22.1358C91.6491 23.0341 91.914 24.0555 91.914 25.2001C91.914 26.3448 91.6491 27.3734 91.1194 28.2862C90.604 29.1845 89.8811 29.8872 88.9505 30.3943C88.02 30.9014 86.9677 31.155 85.7938 31.155ZM85.7938 28.8296C86.7816 28.8296 87.5977 28.4963 88.2419 27.8298C88.8861 27.1634 89.2082 26.2868 89.2082 25.2001C89.2082 24.1135 88.8861 23.2369 88.2419 22.5704C87.5977 21.904 86.7816 21.5707 85.7938 21.5707C84.806 21.5707 83.99 21.904 83.3458 22.5704C82.7158 23.2369 82.4009 24.1135 82.4009 25.2001C82.4009 26.2868 82.7158 27.1634 83.3458 27.8298C83.99 28.4963 84.806 28.8296 85.7938 28.8296Z" fill="black"/>
<path d="M94.4808 14.877H97.1651V31.0029H94.4808V14.877Z" fill="black"/>
<path d="M104.231 31.155C103.301 31.155 102.392 31.0318 101.504 30.7855C100.617 30.5392 99.908 30.2277 99.3783 29.851L100.409 27.7864C100.924 28.1341 101.54 28.4166 102.256 28.634C102.986 28.8368 103.702 28.9382 104.403 28.9382C106.007 28.9382 106.808 28.5108 106.808 27.656C106.808 27.2503 106.601 26.9678 106.186 26.8084C105.785 26.649 105.133 26.4969 104.231 26.352C103.287 26.2071 102.514 26.0405 101.912 25.8521C101.325 25.6638 100.81 25.3378 100.366 24.8741C99.9366 24.396 99.7219 23.7368 99.7219 22.8964C99.7219 21.7953 100.173 20.9187 101.075 20.2667C101.991 19.6003 103.222 19.267 104.768 19.267C105.556 19.267 106.343 19.3612 107.13 19.5496C107.918 19.7234 108.562 19.9625 109.063 20.2667L108.032 22.3314C107.059 21.7518 105.964 21.4621 104.747 21.4621C103.959 21.4621 103.358 21.5852 102.943 21.8315C102.542 22.0633 102.342 22.3749 102.342 22.766C102.342 23.2007 102.556 23.5122 102.986 23.7006C103.43 23.8744 104.11 24.0411 105.026 24.2004C105.942 24.3453 106.694 24.5119 107.281 24.7003C107.868 24.8886 108.369 25.2074 108.784 25.6565C109.213 26.1057 109.428 26.7432 109.428 27.569C109.428 28.6557 108.963 29.525 108.032 30.177C107.102 30.829 105.835 31.155 104.231 31.155Z" fill="black"/>
</svg>

<svg width="110" height="51" fill="none" xmlns="http://www.w3.org/2000/svg"><path d="M0 11.772C0 5.271 5.208 0 11.632 0H38.76c6.424 0 11.632 5.27 11.632 11.772v27.456C50.393 45.73 45.185 51 38.76 51H11.63C5.209 51 0 45.73 0 39.228V11.772z" fill="#000"/><path d="M40.123 23.94c-.526-3.464-3.436-5.98-6.915-5.98a7.313 7.313 0 00-2.193.336 1.54 1.54 0 00-1.07 1.468v2.407a4.243 4.243 0 013.147-1.372c1.17 0 2.262.45 3.069 1.267.811.82 1.256 1.935 1.256 3.127 0 2.46-1.904 4.39-4.325 4.395a4.228 4.228 0 01-3.047-1.276 4.42 4.42 0 01-1.248-3.114V15.019c0-.727-.59-1.316-1.316-1.316h-1.515V23.94s.036 1.145.151 1.868c.181 1.134.304 1.812.812 2.826.514 1.028 1.873 2.26 1.873 2.26a7.032 7.032 0 004.42 1.546c1.394 0 2.727-.41 3.858-1.192 2.469-1.704 3.526-4.233 3.056-7.308h-.013zm-29.739-.022c.526-3.464 3.435-5.98 6.914-5.98a7.303 7.303 0 012.193.336c.634.2 1.07.795 1.07 1.468v2.406a4.243 4.243 0 00-3.146-1.371 4.28 4.28 0 00-3.07 1.267c-.81.82-1.255 1.935-1.255 3.127 0 2.46 1.903 4.39 4.325 4.395a4.228 4.228 0 003.047-1.276 4.42 4.42 0 001.247-3.114v-6.968h1.317c.837 0 1.515.686 1.515 1.534v17.267h-1.32a1.523 1.523 0 01-1.516-1.533v-4.604a7.033 7.033 0 01-4.42 1.546 6.747 6.747 0 01-3.858-1.192c-2.47-1.704-3.527-4.233-3.056-7.308h.013z" fill="#FF5100"/><path d="M64.969 30.373a3.14 3.14 0 01-1.16.586c-.444.13-.916.196-1.417.196-1.26 0-2.234-.333-2.92-1-.688-.666-1.032-1.637-1.032-2.912v-5.585h-1.89v-2.174h1.89v-2.651h2.685v2.651h3.07v2.174h-3.07v5.52c0 .565.136 1 .408 1.304.272.29.665.434 1.18.434.602 0 1.103-.159 1.504-.478l.752 1.935zm6.984.782c-1.16 0-2.205-.254-3.135-.76a5.607 5.607 0 01-2.19-2.109c-.516-.913-.774-1.941-.774-3.086 0-1.145.258-2.166.773-3.064a5.607 5.607 0 012.19-2.108c.931-.507 1.976-.761 3.136-.761 1.174 0 2.226.254 3.157.76a5.457 5.457 0 012.169 2.109c.53.898.794 1.92.794 3.064 0 1.145-.265 2.173-.794 3.086a5.457 5.457 0 01-2.17 2.108c-.93.507-1.982.761-3.156.761zm0-2.325c.988 0 1.804-.334 2.448-1 .644-.667.966-1.543.966-2.63s-.322-1.963-.966-2.63c-.644-.666-1.46-1-2.448-1s-1.804.334-2.448 1c-.63.667-.945 1.543-.945 2.63s.315 1.963.945 2.63c.644.666 1.46 1 2.448 1zm13.841 2.325c-1.16 0-2.205-.254-3.135-.76a5.607 5.607 0 01-2.19-2.109c-.516-.913-.774-1.941-.774-3.086 0-1.145.258-2.166.773-3.064a5.607 5.607 0 012.19-2.108c.931-.507 1.976-.761 3.136-.761 1.174 0 2.226.254 3.157.76a5.457 5.457 0 012.168 2.109c.53.898.795 1.92.795 3.064 0 1.145-.265 2.173-.795 3.086a5.457 5.457 0 01-2.168 2.108c-.931.507-1.983.761-3.157.761zm0-2.325c.988 0 1.804-.334 2.448-1 .644-.667.966-1.543.966-2.63s-.322-1.963-.966-2.63c-.644-.666-1.46-1-2.448-1s-1.804.334-2.448 1c-.63.667-.945 1.543-.945 2.63s.315 1.963.945 2.63c.644.666 1.46 1 2.448 1zm8.686-13.953h2.685v16.126h-2.684V14.877zm9.751 16.278c-.93 0-1.839-.123-2.727-.37-.887-.246-1.596-.557-2.126-.934l1.031-2.065c.515.348 1.131.63 1.847.848.73.203 1.446.304 2.147.304 1.604 0 2.405-.427 2.405-1.282 0-.406-.207-.688-.622-.848-.401-.159-1.053-.311-1.955-.456-.944-.145-1.717-.311-2.319-.5a3.665 3.665 0 01-1.546-.978c-.43-.478-.644-1.137-.644-1.978 0-1.1.451-1.977 1.353-2.63.916-.666 2.147-.999 3.693-.999.788 0 1.575.094 2.362.283.788.173 1.432.412 1.933.717l-1.031 2.064c-.973-.58-2.068-.869-3.285-.869-.788 0-1.389.123-1.804.37-.401.231-.601.543-.601.934 0 .435.214.746.644.935.444.173 1.124.34 2.04.5.916.144 1.668.31 2.255.5a3.445 3.445 0 011.503.956c.429.449.644 1.086.644 1.912 0 1.087-.465 1.956-1.396 2.608-.93.652-2.197.978-3.801.978z" fill="#000"/></svg>
